storage/app/icons/phosphoricons/light/stairs-light.svg

<svg xmlns="http://www.w3.org/2000/svg" fill="currentColor" viewBox="0 0 256 256"><path d="M200 26H56a14 14 0 0 0-14 14v176a14 14 0 0 0 14 14h144a14 14 0 0 0 14-14V40a14 14 0 0 0-14-14m-48 116h50v28h-92v-28Zm6-12v-28h44v28ZM56 38h144a2 2 0 0 1 2 2v50h-50a6 6 0 0 0-6 6v34h-42a6 6 0 0 0-6 6v34H54V40a2 2 0 0 1 2-2m144 180H56a2 2 0 0 1-2-2v-34h148v34a2 2 0 0 1-2 2"/></svg>

<svg xmlns="http://www.w3.org/2000/svg" viewBox="0 0 256 256" fill="currentColor"><path d="M200,26H56A14,14,0,0,0,42,40V216a14,14,0,0,0,14,14H200a14,14,0,0,0,14-14V40A14,14,0,0,0,200,26ZM152,142h50v28H110V142Zm6-12V102h44v28ZM56,38H200a2,2,0,0,1,2,2V90H152a6,6,0,0,0-6,6v34H104a6,6,0,0,0-6,6v34H54V40A2,2,0,0,1,56,38ZM200,218H56a2,2,0,0,1-2-2V182H202v34A2,2,0,0,1,200,218Z"/></svg>
